!!!COM: Chopin, Frederic
!!!CDT: 1810///-1849///
!!!OTL: Mazurka in G Major, Op. 67, No. 1
!!!OPS: Op. 67
!!!ONM: No. 1
!!!OMD: Vivace
!!!ODT: ~1835///
!!!PDT: 1855///
!!!ODE: MMe Hoffman
!!!PPP: Berlin and Paris
!!!AIN: piano
**kern	**kern	**dynam
*staff2	*staff1	*staff1/2
*clefF4	*clefG2	*clefG2
*k[f#]	*k[f#]	*k[f#]
*G:	*G:	*G:
*M3/4	*M3/4	*M3/4
*MM160	*MM160	*MM160
=1-	=1-	=1-
*ped	*	*
4GG 4D	4B 4d	mf
4GG 4D	4B 4d	.
4GG 4D	(4B 4d	sf
=2	=2	=2
4GG 4D	8c) 8eL	.
*Xped	*	*
.	16r	.
.	16B 16dTJk	.
4GG 4D	4A# 4c#	.
*ped	*	*
4GG 4D	(4B 4d	sf
=3	=3	=3
!	!LO:TX:b:i:t=cresc.	!
4GG 4D	8cn) 8eL	.
*Xped	*	*
.	16r	.
.	16B 16dTJk	.
4GG 4D	4A# 4c#	.
*ped	*	*
4GG 4D	(4B 4d	sf
=4	=4	=4
4GG 4D	8c) 8eL	.
*Xped	*	*
.	16r	.
.	16B 16dTJk	.
4GG 4D	4A# 4c#	.
*ped	*	*
4GG 4D	4B 4d	sf
=5||	=5||	=5||
4GGG 4GG	4d^	f
.	(16b/LLq	.
.	16cc/JJq	.
4G 4d	(8g 8bL)	p
.	8f# 8a	<
4G 4d	8g 8b	(
.	8a) 8ccJ	[
*Xped	*	*
=6	=6	=6
.	(16ddLL/q	.
.	16eeJJ/q	.
4G 4d	(8b 8ddL)	.
.	8a# 8cc#J	.
4G 4d	4b 4dd)	.
4G 4d	(4b^ 4gg^	fz
=7	=7	=7
*ped	*	*
4DD	4d)	.
.	(16ccLL/q	.
.	16ddJJ/q	.
4D 4F# 4c	(8an 8ccnL)	<
.	8g# 8b	(
4r	8a 8cc	(
.	8cc 8eeJ)	[
*Xped	*	*
=8	=8	=8
*ped	*	*
*	*^	*
4GG	12eeL	4cc	.
.	12ff#	.	.
.	12eeJ	.	.
4D 4G 4B	2ryy	4.b 4.dd	>
*Xped	*	*	*
4D 4G 4B	.	.	)
!	!	!LO:S:a	!
.	.	(8g/ 8b/	]
*	*v	*v	*
=9	=9	=9
*ped	*	*
4GG	4d)	sf
.	(16bLL/q	.
.	16ccJJ/q	.
4G 4d	(8g 8bL)	p
.	8f# 8a	<
4G 4d	8g 8b	(
.	8a 8ccJ)	[
*Xped	*	*
=10	=10	=10
.	(16ddLL/q	.
.	16eeJJ/q	.
4G 4d	(8b 8ddL)	.
.	8a# 8cc#J	.
4G 4d	4b 4dd)	.
*ped	*	*
4E: 4B: 4e:	4g#: 4dd: (4bb	.
=11	=11	=11
*	*^	*
4A 4e	4an)	4gn	.
*Xped	*	*	*
.	8dd/q	.	.
4A 4e	(8ccL	4g	.
.	8b	.	.
4D 4A 4c	8cc	4f#	.
.	8eeJ)	.	.
=12	=12	=12	=12
*^	*	*	*
4c	2.G	(12eeL	4f#	.
.	.	12ff#	.	.
.	.	12eeJ)	.	.
4B	.	4.dd	2g	.
4d	.	.	.	.
.	.	(8b	.	.
=13||	=13||	=13||	=13	=13||
*ped	*	*	*	*
4AAA^	4r	4.a^	4r	f
4E	2AA	.	4c#	.
.	.	8gL	.	.
*Xped	*	*	*	*
!	!	!LO:S:b	!	!
.	.	(8g/q	.	.
8AL	.	8f#)	4c#	.
8GJ	.	8eJ	.	.
*v	*v	*	*	*
=14	=14	=14	=14
4D 4A	8f#L	4cn	.
.	8dJ	.	.
4GG 4D	4g)	4B	.
!	!	!LO:S:a	!
4GGG	4ryy	(4b	.
*	*v	*v	*
=15	=15	=15
*ped	*	*
4CC	8ccL)	.
.	16r	.
.	(16eeJk	.
4G 4c 4e	12ggL	.
.	12aa	.
.	12ggJ	.
4G 4c 4e	8ff#L	.
.	8eeJ	.
*Xped	*	*
=16	=16	=16
*ped	*	*
!	!LO:TX:i:a:t=leggiero	!
.	8dd/q	.
4GG	8bbL)	>
.	16r	)
.	(16aak	)
4D 4G 4B	8gg)	)
.	16r	)
.	(16eek	)
4r	8dd)	)
.	16r	)
.	(16bJk	]
*Xped	*	*
=17	=17	=17
*ped	*	*
*	*^	*
4AAA	(4.a)	4r	.
(8AAL	.	4c#	.
8E	8gL	.	.
!	!LO:S:b	!	!
.	(8g/q	.	.
8A	8f#)	4c#	.
8GJ)	8eJ	.	.
*Xped	*	*	*
=18	=18	=18	=18
4D 4A	8f#L	4cn	.
.	8dJ	.	.
4GG 4D	4g)	4B	<
!	!	!LO:S:a	!
4GGG	4ryy	(4b	(
.	.	.	[
*	*v	*v	*
=19	=19	=19
*ped	*	*
4DD	8aL\)	.
!	!LO:TX:b:i:t=cresc.	!
.	16r	.
!	!LO:S:a	!
.	(16cc\Jk	.
4D 4F# 4c	12eeL	.
.	12ff#	.
.	12eeJ	.
4D 4F# 4c	8ddL	.
.	8ccJ	.
*Xped	*	*
=20	=20	=20
*ped	*	*
!	!LO:TX:a:i:t=leggiero	!
!LO:TX:a:i:t=dim.	!	!
4GG	8bL)	.
.	16r	.
.	(16ak	.
4D 4B	8g)	.
.	16r	.
.	(16ek	.
4r	8d)	.
*Xped	*	*
.	16r	.
!	!LO:S:a	!
.	(16BJk	.
=21	=21	=21
*ped	*	*
*^	*^	*
4AAA^	4ryy	(4.a)	4r	f
4E	2AA	.	4c#	.
.	.	8gL	.	.
!	!	!LO:S:b	!	!
.	.	(8g/q	.	.
8AL	.	8f#)	4c#	.
8GJ	.	8eJ	.	.
*v	*v	*	*	*
*Xped	*	*	*
=22	=22	=22	=22
4D 4A	8f#L	4cn	.
.	8dJ	.	.
4GG 4D	4g)	4B	.
!	!	!LO:S:a	!
4GGG	4ryy	(4b	.
*	*v	*v	*
=23	=23	=23
*ped	*	*
4CC	8ccL)	.
.	16r	.
.	(16eeJk	.
4G 4c 4e	12ggL	.
.	12aa	.
.	12ggJ	.
4G 4c 4e	8ff#L	.
.	8eeJ	.
*Xped	*	*
=24	=24	=24
*ped	*	*
!	!LO:TX:a:i:t=leggiero	!
.	8dd/q	.
4GG	8bbL)	>
.	16r	)
.	(16aak	)
4D 4G 4B	8gg)	)
.	16r	)
.	(16eek	)
4r	8dd)	)
*Xped	*	*
.	16r	)
.	(16bJk	]
=25	=25	=25
*ped	*	*
*	*^	*
4AAA	4.a	4r	.
8AAL	.	4c#	.
8E	8gL	.	.
.	8g/q	.	.
8A	8f#	4c#	.
8GJ	8eJ	.	.
*Xped	*	*	*
=26	=26	=26	=26
4D 4A	8f#L	4cn	.
.	8dJ	.	.
4GG 4D	4g)	4B	<
!	!	!LO:S:a	!
4GGG	4ryy	(4b	(
.	.	.	[
*	*v	*v	*
=27	=27	=27
*ped	*	*
4DD	8aL\)	.
.	16r	.
.	(16cc\Jk	.
!	!LO:TX:b:i:t=cresc.	!
4D 4F# 4c	12eeL	.
.	12ff#	.
.	12eeJ	.
4D 4F# 4c	8ddL	.
.	8ccJ	.
*Xped	*	*
=28	=28	=28
*ped	*	*
4GG	8bL)	.
!	!LO:TX:i:b:t=dim.	!
.	16r	.
.	(16ak	.
4D 4B	8g)	.
.	16r	.
.	(16ek	.
*Xped	*	*
4r	8d)	.
.	16r	.
.	(16BJk	.
=29||	=29||	=29||
*k[]	*k[]	*k[]
*ped	*	*
4GGG 4GG	4G)	ff
2G 2d 2f	2g (2gg	fz
.	.	.
*Xped	*	*
=30	=30	=30
*ped	*	*
.	16eeLL/q	.
.	16ffJJ/q	.
!	!LO:TX:a:i:t=scherzando	!
4C	8.g\ 8.ee\L)	p
.	16f#\ 16dd#\Jk	.
4G 4c 4e	4g 4ee	.
4G 4c 4e	4a^ (4ffn^	.
.	.	.
*Xped	*	*
=31	=31	=31
*ped	*	*
.	16ddnLL/q	.
.	16eeJJ/q	.
4GG	8.fn 8.ddL)	.
.	16e 16cc#Jk	.
4D 4G 4B	4f 4dd	.
4D 4G 4B	4g^ (4ee^	.
.	.	.
*Xped	*	*
=32	=32	=32
*ped	*	*
*^	*	*
.	.	16ccnLL/q	.
.	.	16ddJJ/q	.
4r	2C	8.e 8.ccnL)	.
.	.	16d# (16bJk	.
!LO:S:b	!	!	!
(4G 4c	.	4e 4cc	.
*Xped	*	*	*
4F# 4c)	4ryy	4d# 4a	.
*v	*v	*	*
=33	=33	=33
*ped	*	*
4GG 4G	4B 4dn 4fn 4g)	ff
2G 2d 2fn	2g^ 2b^ (2gg^	fz
.	.	.
*Xped	*	*
=34	=34	=34
*	*^	*
.	8ff/q	.	.
4c 4e	8eeL)	4g 4cc	pp
.	8dd#J	.	.
4c 4e	4ee	4g 4cc	.
4F 4c 4f	4ff	4a 4cc	sf
=35	=35	=35	=35
4B 4f	8ddnL	4a	.
.	8cc#J	.	.
4B 4f	4dd	4a	.
4E 4B	4ee	4g#	sf
=36	=36	=36	=36
4A 4e	8ccnL	4gn	.
.	8bJ	.	.
4A 4e	4cc	4g	.
4D 4A	4a	4f	.
*	*v	*v	*
=37	=37	=37
*ped	*	*
4GG 4G	4B 4d 4f 4g	ff
2G^ 2d^ 2f^	2g^ 2b^ (2gg^	.
.	.	.
*Xped	*	*
=38	=38	=38
*^	*	*
!	!	!LO:TX:b:i:t=marcato	!
.	(8F#/q	.	.
4ryy	4C 4G)	8g\ 8eetL\)	.
.	.	16r	.
.	.	16f#\ 16dd#\Jk	.
(8F#/q	.	.	.
2G)	4r	4g 4ee	.
.	4r	4a^ (4ffn^	.
=39	=39	=39	=39
(8F#/q	.	.	.
4G)	2.C	8fn 8ddnTL)	.
.	.	16r	.
.	.	16e 16cc#Jk	.
(8F#/q	.	.	.
2G)	.	4f 4dd	.
.	.	4g^ (4ee^	.
=40	=40	=40	=40
(8F#/q	.	.	.
4G)	2.C	8e 8ccnTL)	.
.	.	16r	.
.	.	16d# 16bJk	.
(8F#/q	.	.	.
2G)	.	4e 4cc	.
!	!	!LO:S:a	!
.	.	(4c^ 4a^	.
*v	*v	*	*
=41	=41	=41
*ped	*	*
4GG 4G	4B 4f 4g)	ff
2G^ 2dn^ 2f^	2g^ 2b^ 2gg^	.
.	.	.
*Xped	*	*
=42	=42	=42
*	*^	*
4C 4c	8eetL	4g 4b-	pp
.	8ddJ	.	.
4C 4c	4ee	4g 4b-	.
4F 4c	4ff	4f 4a	sf
=43	=43	=43	=43
4F 4c	8ddTL	4f 4a-	.
.	8cc#J	.	.
4F 4c	4dd	4f 4a-	.
4G 4B	4ee	4f 4g	sf
=44	=44	=44	=44
!LO:TX:a:i:t=riten.	!	!	!
4C 4G 4c	8ccnTL	4e 4g	.
.	8bJ	.	.
4A 4c	4cc	4e 4an	.
4D 4A 4c	4dd	4d 4f#	.
*	*v	*v	*
=45||	=45||	=45||
*ped	*	*
*k[f#]	*k[f#]	*k[f#]
!	!LO:TX:a:i:t=a tempo	!
4GGG 4GG	4d	sf
.	16bLL/q	.
.	16ccJJ/q	.
4G 4d	(8g 8bL	p
.	8f# 8a	<
4G 4d	8g 8b	(
.	8a) 8ccJ	[
*Xped	*	*
=46	=46	=46
.	16ddLL/q	.
.	16eeJJ/q	.
4G 4d	(8b 8ddL	.
.	8a# 8cc#J	.
4G 4d	4b 4dd)	.
4G 4d	(4b^ 4gg^	.
=47	=47	=47
*ped	*	*
4DD^	4d)	.
4D 4F# 4c	8a (8ccL	<
.	8g# 8b	(
4r	8a 8cc	(
.	8cc 8eeJ)	[
*Xped	*	*
=48	=48	=48
*ped	*	*
*	*^	*
4GG	(12eeL	4cc	.
.	12ff#	.	>
.	12eeJ)	.	)
4D 4G 4B	2ryy	4.b 4.dd	)
4D 4G 4B	.	.	)
!	!	!LO:S:a	!
.	.	8g/ (8b/	]
*	*v	*v	*
*Xped	*	*
=49	=49	=49
*ped	*	*
4GG	4d)	sf
.	16bLL/q	.
.	16ccJJ/q	.
4G 4d	(8g 8bL	p
.	8f# 8a	<
4G 4d	8g 8b	(
.	8a) 8ccJ	(
*Xped	*	*
=50	=50	=50
.	16ddLL/q	.
.	16eeJJ/q	.
4G 4d	8b (8ddL	(
.	8a# 8cc#J	(
4G 4d	4b 4dd)	[
*ped	*	*
4E: 4B: 4e:	4g#: 4dd: (4bb:	fz
=51	=51	=51
*	*^	*
4A 4e	4an)	4gn	.
*Xped	*	*	*
.	8dd/q	.	.
4A 4e	(8ccL	4g	.
.	8b	.	.
4D 4A 4c	8cc	4f#	.
.	8eeJ)	.	.
=52	=52	=52	=52
*^	*	*	*
4c	2.G	(12eeL	4f#	.
.	.	12ff#	.	.
.	.	12eeJ	.	.
4B	.	4.dd)	2g	.
4d	.	.	.	.
.	.	(8b	.	.
=53	=53	=53	=53	=53
*ped	*	*	*	*
4AAA^	4ryy	4.a^	4r	f
4E	2AA	.	4c#	.
.	.	8gL	.	.
*Xped	*	*	*	*
.	.	8g/q	.	.
8AL	.	8f#	4c#	.
8GJ	.	8eJ	.	.
*v	*v	*	*	*
=54	=54	=54	=54
4D 4A	8f#L	4cn	.
.	8dJ	.	.
4GG 4D	4g)	4B	.
!	!	!LO:S:a	!
4GGG	4ryy	(4b	.
*	*v	*v	*
=55	=55	=55
*ped	*	*
4CC	8ccL)	.
.	16r	.
.	(16eeJk	.
4G 4c 4e	12ggL	.
.	12aa	.
.	12ggJ	.
4G 4c 4e	8ff#L	.
.	8eeJ	.
*Xped	*	*
=56	=56	=56
*ped	*	*
.	8dd/q	.
!	!LO:TX:a:i:t=leggiero	!
4GG	8bbL)	>
.	16r	)
.	(16aak	)
4D 4G 4B	8gg)	)
.	16r	)
.	(16eek	)
4r	8dd)	)
.	16r	)
.	(16bJk	]
*Xped	*	*
=57	=57	=57
*ped	*	*
*	*^	*
4AAA	4.a	4r	.
(8AAL	.	4c#	.
8E	8gL	.	.
.	8g/q	.	.
8A	8f#	4c#	.
8GJ)	8eJ	.	.
*Xped	*	*	*
=58	=58	=58	=58
4D 4A	8f#L	4cn	.
.	8dJ	.	.
4GG 4D	4g)	4B	<
!	!	!LO:S:a	!
4GGG	4ryy	(4b	(
.	.	.	[
*	*v	*v	*
=59	=59	=59
*ped	*	*
4DD	8a\L)	.
.	16r	.
!	!LO:TX:b:i:t=cresc.	!
.	(16cc\Jk	.
4D 4A 4c	12eeL	.
.	12ff#	.
.	12eeJ	.
4D 4A 4c	8.ddL	.
.	16f#Jk	.
*Xped	*	*
=60	=60	=60
*ped	*	*
4G 4B	4g)	f
4GGG 4GG	4gg 4bb 4ggg	sf
4r	4r	.
*Xped	*	*
==	==	==
*-	*-	*-
!!!SMS: Mikuli edition, G. Schirmer (1894-1898)
!!!ENC: Craig Stuart Sapp
!!!END: 2005/02/10/
!!!EEV: 2017/01/02/
